icons/twitter.svg

<svg xmlns="http://www.w3.org/2000/svg" width="24" height="24" viewBox="0 0 24 24">
  <path d="M22,5.9 C21.2491958,6.22853882 20.4539216,6.44420641 19.64,6.54 C20.4911214,6.0401789 21.1310159,5.24742075 21.44,4.31 C20.6328679,4.78865027 19.7503271,5.12678852 18.83,5.31 C17.2747822,3.65258715 14.6757047,3.55450876 13,5.09 C11.9316385,6.08567671 11.4908204,7.58445827 11.85,9 C8.55590554,8.83478705 5.4842242,7.2880539 3.39,4.74 C3.03049365,5.34573123 2.83731495,6.03565517 2.83,6.74 C2.83007578,8.0980325 3.51917691,9.36326737 4.66,10.1 C4.01175206,10.0911289 3.37464769,9.93014018 2.8,9.63 L2.8,9.68 C2.79342703,11.6305298 4.17485779,13.3100809 6.09,13.68 C5.48636813,13.8416562 4.85412185,13.8655791 4.24,13.75 C4.7921781,15.4022175 6.32813216,16.5251082 8.07,16.55 C6.61183257,17.6555493 4.82986351,18.249539 3,18.24 C2.66576984,18.2399125 2.33184281,18.2198768 2,18.18 C3.88185371,19.370426 6.06323442,20.0016045 8.29,20 C11.3744775,20.0563354 14.3522519,18.8710235 16.5542575,16.7103877 C18.7562631,14.549752 19.9978318,11.5949912 20,8.51 L20,7.99 C20.7844173,7.41640401 21.4614646,6.70888964 22,5.9 L22,5.9 Z"/>
</svg>

<svg xmlns="http://www.w3.org/2000/svg" viewBox="0 0 24 24">
  <path d="M22 5.9c-.75.33-1.55.54-2.36.64.85-.5 1.5-1.3 1.8-2.23-.8.48-1.69.82-2.61 1A4.15 4.15 0 0 0 13 5.09 4 4 0 0 0 11.85 9a11.71 11.71 0 0 1-8.46-4.26 4 4 0 0 0-.56 2 4 4 0 0 0 1.83 3.36c-.65 0-1.29-.17-1.86-.47v.05a4.06 4.06 0 0 0 3.29 4c-.6.16-1.24.19-1.85.07a4.1 4.1 0 0 0 3.83 2.8A8.32 8.32 0 0 1 2 18.18 11.75 11.75 0 0 0 8.29 20 11.5 11.5 0 0 0 20 8.51v-.52a8.26 8.26 0 0 0 2-2.09z"/>
</svg>
